src/next/cmd/ru/sc_underline.svg

<svg height="16" viewBox="0 0 4.2333333 4.2333335" width="16" xmlns="http://www.w3.org/2000/svg" xmlns:xlink="http://www.w3.org/1999/xlink"><linearGradient id="a" gradientTransform="matrix(1.4623427 0 0 1.4623425 -7.463504 -400.26169)" gradientUnits="userSpaceOnUse" x1="18.981823" x2="18.82987" y1="294.72055" y2="275.16284"><stop offset="0" stop-color="#555"/><stop offset="1"/></linearGradient><linearGradient id="b" gradientUnits="userSpaceOnUse" x1="19.05" x2="19.05" y1="-2.116667" y2="10.583333"><stop offset="0" stop-color="#3b3e22"/><stop offset="1" stop-color="#454545" stop-opacity="0"/></linearGradient><g transform="scale(.125)"><path d="m9.736175 12.729247q0 2.062543 1.250026 3.437572 1.312527 1.312527 3.562574 1.312527 1.375029 0 2.937561-.50001 1.625034-.500011 2.500052-1.000021l.875019-.437509v-7.8126626q0-2.4375508-.812517-3.3750703-.750016-.9375195-3.187567-1.1875247v-.9375195h13.250276v.9375195q-2.500052.3125065-3.250068 1.1875247-.750015.8125169-.750015 3.3750703v16.2503386q0 3.250067.750015 4.187587.750016.937519 3.250068 1.250026v.937519h-13.250276v-.937519q2.562554-.312507 3.250068-1.187525.750016-.875018.750016-4.250088v-6.812642q-3.500073 2.187545-7.812663 2.187545-1.250026 0-2.562553-.250005-1.3125277-.312506-2.7500576-.937519-1.4375299-.687515-2.3750494-2.062543-.8750182-1.375029-.8750182-3.250068v-5.1251066q-.0625013-2.6250547-.812517-3.4375716-.7500156-.8125169-3.1875663-1.1250234v-.9375195h13.2502755v.9375195q-2.43755.3125065-3.250067 1.1875247-.750016.8125169-.750016 3.3750703z" fill="url(#a)" stroke-width="1.48483" transform="scale(1.0525265 .95009484)"/><rect fill="#010101" height="2.116667" rx=".472075" ry=".607224" stroke-width=".264583" width="33.866669" x=".000002" y="31.75"/><path d="m5.4238281 10.001953c4.7964529.799413 8.6212169 1.907961 10.8144529 4.052735 2.773893 2.712599 3.651626 7.179043 3.822266 13.648437a2.2131886 1.9978015 0 0 1 0 .04883v18.404295c0 4.169276 1.057596 7.635328 3.125 10.576172.78159 1.030824 1.629946 1.958511 2.541015 2.802734a115.0042 46.058875 0 0 0 17.185547.580078c-.262226-.211442-.519202-.428329-.769531-.654296a2.2131886 1.9978015 0 0 1 -.07813-.06445c-3.685554-3.659575-5.54687-8.348327-5.54687-13.689457v-17.955078c0-6.329474.798728-10.758493 3.574219-13.472656a2.2131886 1.9978015 0 0 1 0-.0059c2.308253-2.243894 6.258339-3.439032 11.171875-4.271485zm65.1874999 0c4.810484.760961 8.68681 1.952927 10.837891 4.361328 2.752196 2.892863 3.751953 7.354635 3.751953 13.388672v28.054688a2.2131886 1.9978015 0 0 1 -.416016 1.162109 115.0042 46.058875 0 0 0 16.873044-3.351562v-25.865235c0-6.30944.80438-10.721095 3.5586-13.4375 2.20948-2.306332 6.15407-3.490747 11.13281-4.3125z" fill="url(#b)" stroke-width="5.611957" transform="scale(.26458334)"/></g></svg>

<?xml version="1.0" encoding="UTF-8" standalone="no"?>
<svg
   xmlns:dc="http://purl.org/dc/elements/1.1/"
   xmlns:cc="http://creativecommons.org/ns#"
   xmlns:rdf="http://www.w3.org/1999/02/22-rdf-syntax-ns#"
   xmlns:svg="http://www.w3.org/2000/svg"
   xmlns="http://www.w3.org/2000/svg"
   xmlns:xlink="http://www.w3.org/1999/xlink"
   xmlns:sodipodi="http://sodipodi.sourceforge.net/DTD/sodipodi-0.dtd"
   xmlns:inkscape="http://www.inkscape.org/namespaces/inkscape"
   height="16"
   viewBox="0 0 4.2333333 4.2333335"
   width="16"
   version="1.1"
   id="svg20"
   sodipodi:docname="sc_underline.svg"
   inkscape:version="0.92.4 (unknown)"
   inkscape:export-filename="/home/rizmut/Dokumen/Rizmut/Github/libreoffice-style-karasa-jaga/build/next/cmd/ru/sc_underline.png"
   inkscape:export-xdpi="96"
   inkscape:export-ydpi="96">
  <metadata
     id="metadata26">
    <rdf:RDF>
      <cc:Work
         rdf:about="">
        <dc:format>image/svg+xml</dc:format>
        <dc:type
           rdf:resource="http://purl.org/dc/dcmitype/StillImage" />
        <dc:title></dc:title>
      </cc:Work>
    </rdf:RDF>
  </metadata>
  <defs
     id="defs24">
    <linearGradient
       inkscape:collect="always"
       xlink:href="#a"
       id="linearGradient831"
       gradientUnits="userSpaceOnUse"
       gradientTransform="matrix(1.4623427,0,0,1.4623425,-7.4635035,-400.26169)"
       x1="18.981823"
       y1="294.72055"
       x2="18.82987"
       y2="275.16284" />
    <linearGradient
       inkscape:collect="always"
       xlink:href="#b"
       id="linearGradient854"
       x1="72"
       y1="-8"
       x2="72"
       y2="40"
       gradientUnits="userSpaceOnUse" />
    <linearGradient
       inkscape:collect="always"
       xlink:href="#a"
       id="linearGradient836"
       gradientUnits="userSpaceOnUse"
       gradientTransform="matrix(1.4623427,0,0,1.4623425,-7.4635035,-400.26169)"
       x1="18.981823"
       y1="294.72055"
       x2="18.82987"
       y2="275.16284" />
  </defs>
  <sodipodi:namedview
     pagecolor="#ffffff"
     bordercolor="#666666"
     borderopacity="1"
     objecttolerance="10"
     gridtolerance="10"
     guidetolerance="10"
     inkscape:pageopacity="0"
     inkscape:pageshadow="2"
     inkscape:window-width="1366"
     inkscape:window-height="706"
     id="namedview22"
     showgrid="true"
     inkscape:zoom="10.429825"
     inkscape:cx="-4.4566742"
     inkscape:cy="19.497708"
     inkscape:window-x="0"
     inkscape:window-y="0"
     inkscape:window-maximized="1"
     inkscape:current-layer="g834">
    <inkscape:grid
       type="xygrid"
       id="grid825" />
  </sodipodi:namedview>
  <linearGradient
     id="a"
     gradientUnits="userSpaceOnUse"
     x1="18.981823"
     x2="20.202982"
     y1="294.72055"
     y2="266.63391"
     gradientTransform="matrix(0.95009481,0,0,0.95009481,1.1979225,-250.11112)">
    <stop
       offset="0"
       stop-color="#555"
       id="stop2" />
    <stop
       offset="1"
       id="stop4" />
  </linearGradient>
  <linearGradient
     id="b"
     gradientUnits="userSpaceOnUse"
     x1="35.404884"
     x2="54.657333"
     y1="7.3243251"
     y2="81.814293"
     gradientTransform="scale(0.26458333)">
    <stop
       offset="0"
       stop-color="#3b3e22"
       id="stop7" />
    <stop
       offset="1"
       stop-color="#454545"
       stop-opacity="0"
       id="stop9" />
  </linearGradient>
  <g
     id="g834"
     transform="scale(0.125)">
    <g
       id="text829"
       style="font-size:59.39325333px;font-family:sans-serif;letter-spacing:0;word-spacing:0;fill:url(#linearGradient831);stroke-width:1.48483026"
       transform="scale(1.0525265,0.95009484)"
       aria-label="ч">
      <path
         id="path824"
         style="font-style:normal;font-variant:normal;font-weight:normal;font-stretch:normal;font-size:62.50130081px;font-family:FreeSerif;-inkscape-font-specification:FreeSerif;fill:url(#linearGradient836);stroke-width:1.48483026"
         d="m 9.736175,12.729247 q 0,2.062543 1.250026,3.437572 1.312527,1.312527 3.562574,1.312527 1.375029,0 2.937561,-0.50001 1.625034,-0.500011 2.500052,-1.000021 l 0.875019,-0.437509 V 7.7291434 q 0,-2.4375508 -0.812517,-3.3750703 Q 19.298874,3.4165536 16.861323,3.1665484 V 2.2290289 H 30.111599 V 3.1665484 Q 27.611547,3.4790549 26.861531,4.3540731 26.111516,5.16659 26.111516,7.7291434 V 23.979482 q 0,3.250067 0.750015,4.187587 0.750016,0.937519 3.250068,1.250026 v 0.937519 H 16.861323 v -0.937519 q 2.562554,-0.312507 3.250068,-1.187525 0.750016,-0.875018 0.750016,-4.250088 V 17.16684 q -3.500073,2.187545 -7.812663,2.187545 -1.250026,0 -2.562553,-0.250005 Q 9.1736633,18.791874 7.7361334,18.166861 6.2986035,17.479346 5.361084,16.104318 4.4860658,14.729289 4.4860658,12.85425 V 7.7291434 Q 4.4235645,5.1040887 3.6735488,4.2915718 2.9235332,3.4790549 0.4859825,3.1665484 V 2.2290289 H 13.736258 V 3.1665484 Q 11.298708,3.4790549 10.486191,4.3540731 9.736175,5.16659 9.736175,7.7291434 Z"
         inkscape:connector-curvature="0" />
    </g>
    <rect
       id="rect13"
       y="31.75"
       width="33.866669"
       ry="0.60722405"
       rx="0.47207487"
       height="2.1166668"
       style="fill:#010101;stroke-width:0.26458335"
       x="1.7011719e-06" />
    <path
       id="text841"
       transform="scale(0.26458334)"
       d="m 5.4238281,10.001953 c 4.7964529,0.799413 8.6212169,1.907961 10.8144529,4.052735 2.773893,2.712599 3.651626,7.179043 3.822266,13.648437 a 2.2131886,1.9978015 0 0 1 0,0.04883 V 46.15625 c 0,4.169276 1.057596,7.635328 3.125,10.576172 0.78159,1.030824 1.629946,1.958511 2.541015,2.802734 a 115.0042,46.058875 0 0 0 17.185547,0.580078 c -0.262226,-0.211442 -0.519202,-0.428329 -0.769531,-0.654296 a 2.2131886,1.9978015 0 0 1 -0.07813,-0.06445 c -3.685554,-3.659575 -5.54687,-8.348327 -5.54687,-13.689457 V 27.751953 c 0,-6.329474 0.798728,-10.758493 3.574219,-13.472656 a 2.2131886,1.9978015 0 0 1 0,-0.0059 c 2.308253,-2.243894 6.258339,-3.439032 11.171875,-4.271485 z m 65.1874999,0 c 4.810484,0.760961 8.68681,1.952927 10.837891,4.361328 2.752196,2.892863 3.751953,7.354635 3.751953,13.388672 V 55.806641 A 2.2131886,1.9978015 0 0 1 84.785156,56.96875 115.0042,46.058875 0 0 0 101.6582,53.617188 V 27.751953 c 0,-6.30944 0.80438,-10.721095 3.5586,-13.4375 2.20948,-2.306332 6.15407,-3.490747 11.13281,-4.3125 z"
       style="font-size:59.39325333px;font-family:sans-serif;letter-spacing:0;word-spacing:0;fill:url(#linearGradient854);fill-opacity:1;stroke-width:5.6119566"
       inkscape:connector-curvature="0" />
  </g>
</svg>
